X:1
T:Title
L:1/4
M:4/4
I:linebreak $
K:D
V:1 treble nm="Voice"
V:1
"D" d/d/D/d/ d/d/c/d/ |"A" c"G" B"A" E E/F/ |"G" G"A" E c B/c/ |"G" B"A" A"D" F D | %4
"D" d/d/D/d/ d/d/c/d/ |"A" c"G" B"A" E E/F/ |"G" G"A" E c B/c/ |1 e d"D" d2 :|2 e d"D" d F/G/ |: %9
"D" A F d F | A G"A" E E/F/ |"G" G"A" E c/c/B/c/ |"G" B"A" A"D" F F/G/ |"D" A F d F | %14
 A G"A" E E/F/ |"G" G"A" E c/c/B/c/ |1 e d"D" d F/G/ :|2 e d"D" d2 |] %18
